dist/svgs/carbon-icons/svg/header-ticket.svg

<svg xmlns="http://www.w3.org/2000/svg" fill-rule="evenodd" viewBox="0 0 14 14"><path d="M5.5 3l3-3 1.4 1.4c-.8.8-.8 2 0 2.8.8.8 2 .8 2.8 0L14 5.6 5.6 14l-1.4-1.3c.8-.8.8-2 0-2.8-.8-.8-2-.8-2.8 0L0 8.5l5-5c0 .3.2.5.5.5s.5-.2.5-.5-.2-.5-.5-.5zm2 3c.3 0 .5-.2.5-.5S7.8 5 7.5 5s-.5.2-.5.5.2.5.5.5zm-1-1c.3 0 .5-.2.5-.5S6.8 4 6.5 4s-.5.2-.5.5.2.5.5.5zm2 2c.3 0 .5-.2.5-.5S8.8 6 8.5 6s-.5.2-.5.5.2.5.5.5zm1 1c.3 0 .5-.2.5-.5S9.8 7 9.5 7s-.5.2-.5.5.2.5.5.5zm1 1c.3 0 .5-.2.5-.5s-.2-.5-.5-.5-.5.2-.5.5.2.5.5.5z"/></svg>

<svg width="14px" height="14px" viewBox="0 0 14 14" version="1.1" xmlns="http://www.w3.org/2000/svg" xmlns:xlink="http://www.w3.org/1999/xlink" fill-rule="evenodd">
	<path d="M5.5,3 L8.5,0 L9.9,1.4 C9.1,2.2 9.1,3.4 9.9,4.2 C10.7,5 11.9,5 12.7,4.2 L14,5.6 L5.6,14 L4.2,12.7 C5,11.9 5,10.7 4.2,9.9 C3.4,9.1 2.2,9.1 1.4,9.9 L0,8.5 L5,3.5 L5,3.5 C5,3.8 5.2,4 5.5,4 C5.8,4 6,3.8 6,3.5 C6,3.2 5.8,3 5.5,3 L5.5,3 L5.5,3 Z M7.5,6 C7.8,6 8,5.8 8,5.5 C8,5.2 7.8,5 7.5,5 C7.2,5 7,5.2 7,5.5 C7,5.8 7.2,6 7.5,6 L7.5,6 Z M6.5,5 C6.8,5 7,4.8 7,4.5 C7,4.2 6.8,4 6.5,4 C6.2,4 6,4.2 6,4.5 C6,4.8 6.2,5 6.5,5 L6.5,5 Z M8.5,7 C8.8,7 9,6.8 9,6.5 C9,6.2 8.8,6 8.5,6 C8.2,6 8,6.2 8,6.5 C8,6.8 8.2,7 8.5,7 L8.5,7 Z M9.5,8 C9.8,8 10,7.8 10,7.5 C10,7.2 9.8,7 9.5,7 C9.2,7 9,7.2 9,7.5 C9,7.8 9.2,8 9.5,8 L9.5,8 Z M10.5,9 C10.8,9 11,8.8 11,8.5 C11,8.2 10.8,8 10.5,8 C10.2,8 10,8.2 10,8.5 C10,8.8 10.2,9 10.5,9 L10.5,9 Z" id="Combined-Shape" fill="#000000"></path>
</svg>
